X: 18595
T: I Think It's Thursday
R: reel
M: 4/4
K: Amajor
|:AFFE F2EF|ABBA B2cB|Affe f2ec|ABBA BecB|
AFFE F2EF|ABBA B2cB|Affe f2ec|1 ABBA B2z2:|2 ABBA B3A||
|:Bffe f2ec|Bffe f2ef|a2fe a2fe|cfec BAFA|
Bffe f2ec|Bffe f2ef|a2fe a2fe|cfec B3A:|

